img/bank/img-7.svg

<svg width="36" height="34" viewBox="0 0 36 34" fill="none" xmlns="http://www.w3.org/2000/svg">
<rect width="36" height="34" rx="11" fill="#3C80AD"/>
<g clip-path="url(#clip0)">
<path d="M20.7448 17.0004C20.7448 20.8676 17.6686 24.0008 13.8724 24.0008C10.0762 24.0008 7 20.866 7 17.0004C7 13.1347 10.0769 10 13.8724 10C17.6679 10 20.7448 13.134 20.7448 17.0004Z" fill="#E2574C"/>
<path d="M22.1259 10C20.5848 10 19.1658 10.5228 18.0191 11.3958L18.0243 11.3965C18.2498 11.6184 18.4986 11.7743 18.6908 12.0299L17.2613 12.053C17.0374 12.2833 16.8331 12.5336 16.6408 12.7946H19.1621C19.3536 13.0288 19.5315 13.233 19.6921 13.4917H16.1831C16.0542 13.7175 15.9358 13.9486 15.8318 14.1896H20.091C20.2025 14.4299 20.3021 14.6111 20.3865 14.8653H15.5792C15.5031 15.1071 15.4375 15.3536 15.3877 15.6061H20.5878C20.6391 15.848 20.6775 16.0722 20.7047 16.3002H15.2852C15.2626 16.5305 15.2505 16.7639 15.2505 17.0004H20.7439C20.7439 17.2484 20.7265 17.4779 20.7017 17.7006H15.2844C15.3078 17.9378 15.3425 18.1712 15.3877 18.4008H20.5795C20.526 18.6273 20.4642 18.856 20.3865 19.0925H15.5634C15.6365 19.3321 15.7247 19.5647 15.822 19.7912H20.091C19.9726 20.0461 19.8384 20.2495 19.6906 20.4883H16.1703C16.3091 20.7332 16.4629 20.9674 16.6287 21.1908L19.1613 21.2292C18.9457 21.4933 18.6682 21.6522 18.4164 21.8833C18.43 21.8948 18.013 21.8818 17.1912 21.8687C18.4413 23.1823 20.1875 24.0008 22.1259 24.0008C25.9229 24.0008 29.0006 20.8668 29.0006 17.0004C29.0006 13.134 25.9229 10 22.1259 10Z" fill="#F4B459"/>
</g>
<defs>
<clipPath id="clip0">
<rect width="22" height="14" fill="white" transform="translate(7 10)"/>
</clipPath>
</defs>
</svg>

<svg width="36" height="34" fill="none" xmlns="http://www.w3.org/2000/svg"><rect width="36" height="34" rx="11" fill="#3C80AD"/><g clip-path="url(#clip0)"><path d="M20.745 17c0 3.868-3.076 7-6.873 7C10.076 24 7 20.867 7 17c0-3.865 3.077-7 6.872-7 3.796 0 6.873 3.134 6.873 7z" fill="#E2574C"/><path d="M22.126 10c-1.541 0-2.96.523-4.107 1.396h.005c.226.222.475.378.667.634l-1.43.023c-.224.23-.428.48-.62.742h2.521c.192.234.37.438.53.697h-3.509a7.004 7.004 0 00-.351.698h4.259c.111.24.211.421.296.675h-4.808a6.94 6.94 0 00-.191.741h5.2c.051.242.09.466.117.694h-5.42c-.022.23-.034.464-.034.7h5.493c0 .248-.017.478-.042.7h-5.418c.024.238.058.471.104.7h5.191a8.337 8.337 0 01-.192.693h-4.824c.073.24.162.472.259.698h4.269c-.118.255-.253.459-.4.697h-3.52c.138.245.292.48.458.703l2.532.038c-.215.264-.493.423-.745.654.014.012-.403-.001-1.225-.014A6.79 6.79 0 0022.126 24C25.923 24 29 20.867 29 17s-3.077-7-6.874-7z" fill="#F4B459"/></g><defs><clipPath id="clip0"><path fill="#fff" transform="translate(7 10)" d="M0 0h22v14H0z"/></clipPath></defs></svg>
